X:30
T: Maple Leaf
C:  D. de Brn
Z: B.Black
S: "Oisin"
R: reel
M: 4/4
L: 1/8
K: G
D |: E3 F GE E2 | B2 AB AGED | EDEF GFGA | B2 dB BAGF |
E3 F GE E2 | B2 AB AGED | Beed BAGA | B2 B2 AGFE :|
Beed ef g2 | Beed edBA | Beed efge | a2 eg fedA |
Beed ef g2 | Beed edBA | a2 eg fedA | B2 B2 AGED :|
